;generated by ffslicer 2.2.2 08/03/24 10:46:29
;machine_type: Adventurer 3 Series
;right_extruder_material: PLA
;right_extruder_material_density: 1.24
;filament_diameter0: 1.75
;right_extruder_temperature: 210
;layer_height: 0.18
;perimeter_shells: 2
;top_solid_layers: 4
;bottom_solid_layers: 3
;fill_density: 15%
;fill_pattern: hexagon
;base_print_speed: 60
;travel_speed: 80
;platform_temperature: 50
;right_extruder_temperature_raft0: 0
;right_extruder_temperature_reset: 
;left_extruder_temperature_reset: 
;start gcode
M118 X18.75 Y15.00 Z14.10 T0
M140 S50 T0
M104 S210 T0
M104 S0 T1
M107
G90
G28
M132 X Y Z A B
G1 Z50.000 F420
G161 X Y F3300
M7 T0
M6 T0
M651 S255
;layer_count: 77
M108 T0
G1 X15.00 Y-15.00 F4800
;preExtrude:0.20
M106
G1 Z.200 F420
;structure:pre-extrude
G1 X15.00 Y-15.00 F4800
G1 X15.00 Y15.00 E4.3504 F1200
G1 X-15.00 Y15.00 E8.7009
G1 X-15.00 Y-15.00 E13.0513
G1 X15.00 Y-15.00 E17.4017
;raft
;layer:0.28
G1 E12.4017 F1500
G1 Z.280 F420
G1 X6.90 Y-.01 F4200
G1 E17.4017 F1500
;structure:shell-inner
G1 X6.90 Y-.01 F4200
G1 X6.88 Y.48 E17.4266 F600
G1 X6.84 Y.89 E17.4475
G1 X6.76 Y1.36 E17.4717
G1 X6.66 Y1.81 E17.4951
G1 X6.54 Y2.22 E17.5168
G1 X6.37 Y2.65 E17.5402
G1 X6.19 Y3.05 E17.5625
G1 X5.97 Y3.46 E17.5861
G1 X5.73 Y3.84 E17.6089
G1 X5.46 Y4.22 E17.6326
G1 X5.19 Y4.55 E17.6542
G1 X4.87 Y4.89 E17.6779
G1 X4.55 Y5.19 E17.7002
G1 X4.18 Y5.49 E17.7244
G1 X3.83 Y5.74 E17.7462
G1 X3.44 Y5.98 E17.7694
G1 X3.04 Y6.19 E17.7924
G1 X2.63 Y6.38 E17.8153
G1 X2.21 Y6.53 E17.8379
G1 X1.77 Y6.67 E17.8614
G1 X1.33 Y6.77 E17.8843
G1 X.90 Y6.84 E17.9064
G1 X.44 Y6.88 E17.9298
G1 X-.01 Y6.90 E17.9527
G1 X-.47 Y6.88 E17.9761
G1 X-.90 Y6.84 E17.9980
G1 X-1.36 Y6.76 E18.0217
G1 X-1.81 Y6.66 E18.0451
G1 X-2.22 Y6.53 E18.0669
G1 X-2.66 Y6.37 E18.0907
G1 X-3.06 Y6.18 E18.1131
G1 X-3.46 Y5.97 E18.1361
G1 X-3.84 Y5.73 E18.1589
G1 X-4.21 Y5.47 E18.1818
G1 X-4.57 Y5.17 E18.2056
G1 X-4.89 Y4.87 E18.2279
G1 X-5.20 Y4.54 E18.2509
G1 X-5.47 Y4.20 E18.2729
G1 X-5.74 Y3.82 E18.2966
G1 X-5.98 Y3.45 E18.3189
G1 X-6.19 Y3.04 E18.3423
G1 X-6.38 Y2.63 E18.3653
G1 X-6.54 Y2.20 E18.3886
G1 X-6.67 Y1.78 E18.4109
G1 X-6.77 Y1.33 E18.4343
G1 X-6.84 Y.88 E18.4574
G1 X-6.88 Y.45 E18.4793
G1 X-6.90 Y-.01 E18.5027
G1 X-6.88 Y-.48 E18.5265
G1 X-6.84 Y-.90 E18.5480
G1 X-6.76 Y-1.35 E18.5712
G1 X-6.66 Y-1.80 E18.5945
G1 X-6.53 Y-2.24 E18.6178
G1 X-6.37 Y-2.64 E18.6397
G1 X-6.18 Y-3.07 E18.6636
G1 X-5.98 Y-3.45 E18.6854
G1 X-5.73 Y-3.84 E18.7089
G1 X-5.47 Y-4.21 E18.7318
G1 X-5.17 Y-4.57 E18.7556
G1 X-4.86 Y-4.89 E18.7782
G1 X-4.55 Y-5.19 E18.8001
G1 X-4.19 Y-5.48 E18.8236
G1 X-3.82 Y-5.75 E18.8468
G1 X-3.45 Y-5.97 E18.8687
G1 X-3.03 Y-6.20 E18.8930
G1 X-2.63 Y-6.38 E18.9152
G1 X-2.21 Y-6.54 E18.9381
G1 X-1.77 Y-6.67 E18.9613
G1 X-1.33 Y-6.77 E18.9842
G1 X-.88 Y-6.84 E19.0074
G1 X-.45 Y-6.88 E19.0293
G1 X.01 Y-6.90 E19.0526
G1 X.47 Y-6.88 E19.0760
G1 X.73 Y-6.86 E19.0892
G1 X.91 Y-6.84 E19.0984
G1 X1.36 Y-6.76 E19.1216
G1 X1.81 Y-6.66 E19.1450
G1 X2.21 Y-6.53 E19.1664
G1 X2.66 Y-6.37 E19.1906
G1 X3.05 Y-6.19 E19.2124
G1 X3.46 Y-5.97 E19.2360
G1 X3.84 Y-5.73 E19.2588
G1 X4.21 Y-5.47 E19.2818
G1 X4.36 Y-5.34 E19.2919
G1 X4.56 Y-5.18 E19.3049
G1 X4.89 Y-4.87 E19.3279
G1 X5.19 Y-4.55 E19.3501
G1 X5.49 Y-4.18 E19.3743
G1 X5.71 Y-3.87 E19.3936
G1 X5.74 Y-3.82 E19.3965
G1 X5.97 Y-3.45 E19.4187
G1 X6.20 Y-3.03 E19.4430
G1 X6.38 Y-2.64 E19.4648
G1 X6.54 Y-2.21 E19.4880
G1 X6.57 Y-2.08 E19.4948
G1 X6.67 Y-1.78 E19.5109 F540
G1 X6.77 Y-1.33 E19.5343
G1 X6.84 Y-.89 E19.5569
G1 X6.88 Y-.46 E19.5788
G1 X6.89 Y-.12 E19.5961
;structure:shell-outer
G1 X7.30 Y-.01 E19.5961 F300
G1 X7.28 Y.49 E19.6215 F600
G1 X7.24 Y.97 E19.6459
G1 X7.16 Y1.43 E19.6696
G1 X7.05 Y1.91 E19.6946
G1 X6.91 Y2.35 E19.7180
G1 X6.74 Y2.80 E19.7425
G1 X6.54 Y3.24 E19.7670
G1 X6.32 Y3.66 E19.7910
G1 X6.06 Y4.07 E19.8157
G1 X5.78 Y4.46 E19.8401
G1 X5.48 Y4.82 E19.8638
G1 X5.15 Y5.18 E19.8886
G1 X4.81 Y5.49 E19.9120
G1 X4.43 Y5.80 E19.9369
G1 X4.04 Y6.08 E19.9612
G1 X3.64 Y6.32 E19.9849
G1 X3.21 Y6.55 E20.0097
G1 X2.78 Y6.75 E20.0337
G1 X2.33 Y6.92 E20.0582
G1 X1.88 Y7.05 E20.0819
G1 X1.41 Y7.16 E20.1064
G1 X.94 Y7.24 E20.1306
G1 X.47 Y7.28 E20.1546
G1 X-.01 Y7.30 E20.1789
G1 X-.49 Y7.28 E20.2033
G1 X-.97 Y7.23 E20.2278
G1 X-1.43 Y7.16 E20.2514
G1 X-1.91 Y7.05 E20.2764
G1 X-2.35 Y6.91 E20.2999
G1 X-2.81 Y6.74 E20.3248
G1 X-3.24 Y6.54 E20.3488
G1 X-3.66 Y6.32 E20.3729
G1 X-4.07 Y6.06 E20.3975
G1 X-4.46 Y5.78 E20.4219
G1 X-4.82 Y5.48 E20.4457
G1 X-5.18 Y5.15 E20.4705
G1 X-5.49 Y4.81 E20.4938
G1 X-5.80 Y4.44 E20.5183
G1 X-6.07 Y4.05 E20.5424
G1 X-6.33 Y3.64 E20.5670
G1 X-6.55 Y3.21 E20.5916
G1 X-6.75 Y2.78 E20.6156
G1 X-6.92 Y2.33 E20.6400
G1 X-7.05 Y1.88 E20.6638
G1 X-7.16 Y1.41 E20.6883
G1 X-7.24 Y.94 E20.7125
G1 X-7.28 Y.47 E20.7365
G1 X-7.30 Y-.01 E20.7608
G1 X-7.28 Y-.50 E20.7857
G1 X-7.23 Y-.97 E20.8097
G1 X-7.16 Y-1.43 E20.8333
G1 X-7.05 Y-1.91 E20.8583
G1 X-6.91 Y-2.35 E20.8818
G1 X-6.74 Y-2.80 E20.9062
G1 X-6.54 Y-3.25 E20.9312
G1 X-6.32 Y-3.65 E20.9543
G1 X-6.06 Y-4.07 E20.9794
G1 X-5.78 Y-4.46 E21.0038
G1 X-5.48 Y-4.82 E21.0276
G1 X-5.15 Y-5.18 E21.0524
G1 X-4.81 Y-5.49 E21.0757
G1 X-4.44 Y-5.79 E21.0999
G1 X-4.04 Y-6.08 E21.1250
G1 X-3.64 Y-6.32 E21.1486
G1 X-3.21 Y-6.55 E21.1734
G1 X-2.78 Y-6.75 E21.1975
G1 X-2.33 Y-6.92 E21.2219
G1 X-1.88 Y-7.05 E21.2456
G1 X-1.41 Y-7.16 E21.2701
G1 X-.94 Y-7.24 E21.2943
G1 X-.47 Y-7.28 E21.3183
G1 X.01 Y-7.30 E21.3427
G1 X.49 Y-7.28 E21.3671
G1 X.97 Y-7.23 E21.3915
G1 X1.43 Y-7.16 E21.4152
G1 X1.91 Y-7.05 E21.4402
G1 X2.36 Y-6.91 E21.4641
G1 X2.80 Y-6.74 E21.4880
G1 X3.24 Y-6.54 E21.5125
G1 X3.66 Y-6.32 E21.5366
G1 X4.07 Y-6.06 E21.5613
G1 X4.46 Y-5.78 E21.5856
G1 X4.82 Y-5.48 E21.6094
G1 X5.18 Y-5.15 E21.6342
G1 X5.49 Y-4.81 E21.6575
G1 X5.80 Y-4.43 E21.6824
G1 X6.08 Y-4.04 E21.7068
G1 X6.32 Y-3.64 E21.7305
G1 X6.55 Y-3.21 E21.7552
G1 X6.75 Y-2.79 E21.7788
G1 X6.91 Y-2.34 E21.8031
G1 X7.05 Y-1.88 E21.8275
G1 X7.16 Y-1.41 E21.8520
G1 X7.24 Y-.95 E21.8757
G1 X7.28 Y-.47 E21.9001
G1 X7.30 Y-.11 E21.9184
G1 X6.90 Y-.11 E21.9252 F300
G1 X4.97 Y-4.28 F4200
;structure:infill-solid
G1 X4.97 Y-4.28
G1 X4.27 Y-4.97 E21.9751 F600
G1 X3.99 Y-5.21 E21.9938
G1 X3.66 Y-5.44 E22.0142
G1 X3.29 Y-5.67 E22.0363
G1 X2.68 Y-5.98 E22.0710
G1 X5.98 Y-2.69 E22.3075
G1 X6.21 Y-2.12 E22.3387
G1 X6.31 Y-1.78 E22.3567
G1 X1.78 Y-6.31 E22.6819
G1 X1.72 Y-6.33 E22.6851
G1 X1.04 Y-6.47 E22.7203
G1 X6.47 Y-1.04 E23.1101
G1 X6.50 Y-.85 E23.1199
G1 X6.54 Y-.39 E23.1433
G1 X.39 Y-6.54 E23.5847
G1 X-.20 Y-6.55 E23.6147
G1 X6.55 Y.20 E24.0992
G1 X6.51 Y.74 E24.1267
G1 X-.74 Y-6.51 E24.6471
G1 X-1.24 Y-6.44 E24.6727
G1 X6.44 Y1.24 E25.2239
G1 X6.33 Y1.71 E25.2484
G1 X-1.71 Y-6.33 E25.8255
G1 X-2.15 Y-6.19 E25.8490
G1 X6.19 Y2.16 E26.4480
G1 X6.03 Y2.57 E26.4703
G1 X-2.57 Y-6.03 E27.0876
G1 X-2.96 Y-5.84 E27.1096
G1 X5.85 Y2.97 E27.7420
G1 X5.64 Y3.34 E27.7636
G1 X-3.34 Y-5.64 E28.4081
G1 X-3.69 Y-5.42 E28.4291
G1 X5.42 Y3.69 E29.0830
G1 X5.17 Y4.03 E29.1044
G1 X-4.03 Y-5.17 E29.7648
G1 X-4.34 Y-4.91 E29.7853
G1 X4.91 Y4.34 E30.4493
G1 X4.63 Y4.64 E30.4701
G1 X-4.64 Y-4.63 E31.1355
G1 X-4.91 Y-4.32 E31.1564
G1 X4.33 Y4.92 E31.8196
G1 X4.01 Y5.18 E31.8405
G1 X-5.18 Y-4.01 E32.5002
G1 X-5.43 Y-3.68 E32.5212
G1 X3.68 Y5.43 E33.1751
G1 X3.32 Y5.64 E33.1962
G1 X-5.65 Y-3.32 E33.8397
G1 X-5.86 Y-2.95 E33.8613
G1 X2.95 Y5.85 E34.4933
G1 X2.56 Y6.04 E34.5154
G1 X-6.04 Y-2.56 E35.1327
G1 X-6.20 Y-2.14 E35.1555
G1 X2.14 Y6.20 E35.7541
G1 X1.69 Y6.33 E35.7779
G1 X-6.33 Y-1.69 E36.3535
G1 X-6.44 Y-1.22 E36.3780
G1 X1.22 Y6.44 E36.9279
G1 X.72 Y6.51 E36.9535
G1 X-6.52 Y-.72 E37.4728
G1 X-6.55 Y-.18 E37.5002
G1 X.18 Y6.55 E37.9833
G1 X-.41 Y6.54 E38.0133
G1 X-6.54 Y.41 E38.4533
G1 X-6.47 Y1.06 E38.4864
G1 X-1.07 Y6.46 E38.8740
G1 X-1.18 Y6.45 E38.8797
G1 X-1.81 Y6.30 E38.9125
G1 X-6.29 Y1.82 E39.2341
G1 X-6.10 Y2.40 E39.2651
G1 X-5.96 Y2.73 E39.2833
G1 X-2.73 Y5.96 E39.5151
G1 X-3.27 Y5.68 E39.5460
G1 X-3.65 Y5.45 E39.5685
G1 X-4.00 Y5.19 E39.5906
G1 X-4.34 Y4.92 E39.6127
G1 X-4.71 Y4.56 E39.6389
;layer:0.19
G1 Z.470 F420
G1 X6.90 Y-.00 F4800
;structure:shell-inner
G1 X6.90 Y-.00
G1 X6.88 Y.49 E39.6558 F2880
G1 X6.84 Y.93 E39.6710
G1 X6.76 Y1.36 E39.6861
G1 X6.65 Y1.83 E39.7027
G1 X6.52 Y2.25 E39.7178
G1 X6.37 Y2.65 E39.7325
G1 X6.16 Y3.10 E39.7496
G1 X5.96 Y3.47 E39.7641
G1 X5.71 Y3.87 E39.7804
G1 X5.46 Y4.21 E39.7949
G1 X5.16 Y4.58 E39.8113
G1 X4.86 Y4.90 E39.8264
G1 X4.52 Y5.21 E39.8423
G1 X4.18 Y5.49 E39.8574
G1 X3.79 Y5.76 E39.8738
G1 X3.43 Y5.99 E39.8885
G1 X3.02 Y6.20 E39.9043 F3024
G1 X2.60 Y6.39 E39.9202
G1 X2.18 Y6.54 E39.9356
G1 X1.76 Y6.67 E39.9507
G1 X1.31 Y6.77 E39.9666
G1 X.87 Y6.84 E39.9819
G1 X.42 Y6.89 E39.9975
G1 X-.03 Y6.90 E40.0130
G1 X-.49 Y6.88 E40.0289
G1 X-.94 Y6.83 E40.0445
G1 X-1.36 Y6.76 E40.0592
G1 X-1.83 Y6.65 E40.0758
G1 X-2.24 Y6.52 E40.0906
G1 X-2.66 Y6.37 E40.1060
G1 X-3.09 Y6.17 E40.1223
G1 X-3.48 Y5.96 E40.1375
G1 X-3.86 Y5.72 E40.1530 F3168
G1 X-4.23 Y5.45 E40.1688
G1 X-4.57 Y5.17 E40.1840
G1 X-4.91 Y4.85 E40.2000
G1 X-5.21 Y4.52 E40.2154
G1 X-5.50 Y4.17 E40.2311
G1 X-5.76 Y3.80 E40.2466
G1 X-5.99 Y3.42 E40.2619
G1 X-6.20 Y3.03 E40.2772
G1 X-6.39 Y2.61 E40.2931
G1 X-6.54 Y2.19 E40.3084
G1 X-6.67 Y1.75 E40.3242
G1 X-6.77 Y1.30 E40.3401
G1 X-6.84 Y.87 E40.3551
G1 X-6.89 Y.42 E40.3707
G1 X-6.90 Y-.03 E40.3862
G1 X-6.88 Y-.48 E40.4017 F3312
G1 X-6.83 Y-.94 E40.4176
G1 X-6.76 Y-1.36 E40.4323
G1 X-6.65 Y-1.83 E40.4489
G1 X-6.52 Y-2.24 E40.4637
G1 X-6.36 Y-2.66 E40.4792
G1 X-6.17 Y-3.09 E40.4954
G1 X-5.96 Y-3.48 E40.5107
G1 X-5.71 Y-3.87 E40.5266
G1 X-5.45 Y-4.23 E40.5419
G1 X-5.17 Y-4.57 E40.5571
G1 X-4.85 Y-4.91 E40.5732
G1 X-4.52 Y-5.21 E40.5885
G1 X-4.16 Y-5.50 E40.6045
G1 X-3.82 Y-5.75 E40.6190
G1 X-3.42 Y-5.99 E40.6351
G1 X-3.02 Y-6.20 E40.6506 F3456
G1 X-2.61 Y-6.38 E40.6660
G1 X-2.18 Y-6.54 E40.6818
G1 X-1.76 Y-6.67 E40.6970
G1 X-1.31 Y-6.77 E40.7129
G1 X-.87 Y-6.84 E40.7282
G1 X-.42 Y-6.89 E40.7438
G1 X.03 Y-6.90 E40.7593
G1 X.49 Y-6.88 E40.7752
G1 X.73 Y-6.86 E40.7834
G1 X.94 Y-6.83 E40.7907
G1 X1.36 Y-6.76 E40.8054
G1 X1.83 Y-6.65 E40.8220
G1 X2.25 Y-6.52 E40.8372
G1 X2.66 Y-6.37 E40.8522
G1 X3.10 Y-6.16 E40.8690
G1 X3.48 Y-5.96 E40.8838
G1 X3.86 Y-5.72 E40.8993 F2376
G1 X4.22 Y-5.46 E40.9146
G1 X4.36 Y-5.34 E40.9209
G1 X4.58 Y-5.16 E40.9307 F1764
G1 X4.90 Y-4.86 E40.9458
G1 X5.21 Y-4.52 E40.9617
G1 X5.49 Y-4.18 E40.9768
G1 X5.71 Y-3.87 E40.9899
G1 X5.76 Y-3.79 E40.9932 F1152
G1 X5.99 Y-3.43 E41.0079
G1 X6.20 Y-3.03 E41.0234
G1 X6.38 Y-2.61 E41.0392
G1 X6.55 Y-2.17 E41.0554
G1 X6.57 Y-2.08 E41.0586
G1 X6.67 Y-1.77 E41.0698 F540
G1 X6.77 Y-1.30 E41.0864
G1 X6.84 Y-.88 E41.1010
G1 X6.89 Y-.42 E41.1170
G1 X6.89 Y-.12 E41.1273
;structure:shell-outer
G1 X7.30 Y-.00 E41.1273 F300
G1 X7.28 Y.51 E41.1449 F1800
G1 X7.23 Y.99 E41.1615
G1 X7.15 Y1.45 E41.1776
G1 X7.04 Y1.93 E41.1946
G1 X6.90 Y2.37 E41.2105
G1 X6.73 Y2.82 E41.2270
G1 X6.53 Y3.27 E41.2440
G1 X6.30 Y3.68 E41.2602
G1 X6.05 Y4.09 E41.2767
G1 X5.77 Y4.47 E41.2930
G1 X5.46 Y4.84 E41.3096
G1 X5.14 Y5.19 E41.3259
G1 X4.78 Y5.51 E41.3425
G1 X4.42 Y5.81 E41.3587
G1 X4.02 Y6.09 E41.3755
G1 X3.62 Y6.34 E41.3917
G1 X3.20 Y6.56 E41.4080
G1 X2.76 Y6.76 E41.4247
G1 X2.31 Y6.92 E41.4411
G1 X1.85 Y7.06 E41.4577
G1 X1.40 Y7.16 E41.4736
G1 X.91 Y7.24 E41.4907
G1 X.44 Y7.28 E41.5069
G1 X-.03 Y7.30 E41.5231
G1 X-.51 Y7.28 E41.5397
G1 X-.99 Y7.23 E41.5563
G1 X-1.45 Y7.15 E41.5724
G1 X-1.93 Y7.04 E41.5893
G1 X-2.37 Y6.90 E41.6052
G1 X-2.82 Y6.73 E41.6218
G1 X-3.27 Y6.53 E41.6388
G1 X-3.69 Y6.30 E41.6553
G1 X-4.08 Y6.05 E41.6712
G1 X-4.47 Y5.77 E41.6877
G1 X-4.84 Y5.46 E41.7044
G1 X-5.19 Y5.14 E41.7207
G1 X-5.51 Y4.78 E41.7373
G1 X-5.82 Y4.41 E41.7539
G1 X-6.08 Y4.03 E41.7698
G1 X-6.34 Y3.62 E41.7865
G1 X-6.56 Y3.20 E41.8028
G1 X-6.76 Y2.75 E41.8198
G1 X-6.92 Y2.32 E41.8356
G1 X-7.06 Y1.85 E41.8525
G1 X-7.16 Y1.40 E41.8683
G1 X-7.24 Y.91 E41.8854
G1 X-7.28 Y.45 E41.9013
G1 X-7.30 Y-.03 E41.9179
G1 X-7.28 Y-.51 E41.9344
G1 X-7.23 Y-.99 E41.9511
G1 X-7.15 Y-1.45 E41.9671
G1 X-7.04 Y-1.93 E41.9841
G1 X-6.90 Y-2.37 E42.0000
G1 X-6.73 Y-2.82 E42.0166
G1 X-6.53 Y-3.27 E42.0335
G1 X-6.30 Y-3.68 E42.0497
G1 X-6.05 Y-4.09 E42.0663
G1 X-5.77 Y-4.47 E42.0825
G1 X-5.46 Y-4.84 E42.0991
G1 X-5.14 Y-5.19 E42.1155
G1 X-4.78 Y-5.51 E42.1321
G1 X-4.41 Y-5.82 E42.1487
G1 X-4.03 Y-6.08 E42.1646
G1 X-3.62 Y-6.34 E42.1813
G1 X-3.20 Y-6.56 E42.1976
G1 X-2.76 Y-6.76 E42.2142
G1 X-2.32 Y-6.92 E42.2304
G1 X-1.85 Y-7.06 E42.2473
G1 X-1.40 Y-7.16 E42.2631
G1 X-.91 Y-7.24 E42.2802
G1 X-.45 Y-7.28 E42.2961
G1 X.04 Y-7.30 E42.3130
G1 X.51 Y-7.28 E42.3292
G1 X.99 Y-7.23 E42.3459
G1 X1.45 Y-7.15 E42.3619
G1 X1.93 Y-7.04 E42.3789
G1 X2.38 Y-6.90 E42.3951
G1 X2.82 Y-6.73 E42.4114
G1 X3.27 Y-6.53 E42.4283
G1 X3.68 Y-6.30 E42.4445
G1 X4.09 Y-6.05 E42.4611
G1 X4.47 Y-5.77 E42.4773
G1 X4.84 Y-5.46 E42.4939
G1 X5.19 Y-5.14 E42.5103
G1 X5.51 Y-4.78 E42.5269
G1 X5.81 Y-4.42 E42.5430
G1 X6.09 Y-4.02 E42.5598
G1 X6.34 Y-3.62 E42.5761
G1 X6.56 Y-3.20 E42.5924
G1 X6.75 Y-2.77 E42.6086
G1 X6.92 Y-2.31 E42.6255
G1 X7.06 Y-1.85 E42.6420
G1 X7.16 Y-1.40 E42.6579
G1 X7.24 Y-.91 E42.6750
G1 X7.28 Y-.45 E42.6909
G1 X7.30 Y-.10 E42.7030
G1 X6.90 Y-.10 E42.7076 F300
G1 X4.52 Y4.74 F4800
;structure:infill-solid
G1 X4.52 Y4.74
G1 X4.90 Y4.35 E42.7263 F1800
G1 X5.20 Y4.00 E42.7422
G1 X5.43 Y3.68 E42.7558
G1 X5.67 Y3.30 E42.7713
G1 X5.96 Y2.73 E42.7933
G1 X2.73 Y5.96 E42.9506
G1 X2.08 Y6.22 E42.9747
G1 X1.81 Y6.30 E42.9844
G1 X6.30 Y1.81 E43.2031
G1 X6.43 Y1.29 E43.2216
G1 X6.46 Y1.07 E43.2292
G1 X1.06 Y6.47 E43.4922
G1 X.41 Y6.54 E43.5147
G1 X6.53 Y.42 E43.8128
G1 X6.55 Y-.18 E43.8335
G1 X-.18 Y6.55 E44.1613
G1 X-.72 Y6.51 E44.1800
G1 X6.51 Y-.71 E44.5319
G1 X6.44 Y-1.22 E44.5496
G1 X-1.22 Y6.44 E44.9227
G1 X-1.69 Y6.33 E44.9393
G1 X6.33 Y-1.69 E45.3299
G1 X6.20 Y-2.14 E45.3461
G1 X-2.14 Y6.20 E45.7523
G1 X-2.56 Y6.04 E45.7678
G1 X6.04 Y-2.55 E46.1864
G1 X5.85 Y-2.95 E46.2017
G1 X-2.95 Y5.85 E46.6303
G1 X-3.33 Y5.65 E46.6451
G1 X5.65 Y-3.32 E47.0822
G1 X5.42 Y-3.68 E47.0969
G1 X-3.68 Y5.42 E47.5402
G1 X-4.01 Y5.18 E47.5542
G1 X5.18 Y-4.01 E48.0018
G1 X4.92 Y-4.33 E48.0160
G1 X-4.32 Y4.92 E48.4663
G1 X-4.63 Y4.64 E48.4807
G1 X4.64 Y-4.63 E48.9322
G1 X4.34 Y-4.91 E48.9463
G1 X-4.91 Y4.34 E49.3969
G1 X-5.17 Y4.03 E49.4108
G1 X4.03 Y-5.17 E49.8589
G1 X3.69 Y-5.42 E49.8734
G1 X-5.41 Y3.69 E50.3169
G1 X-5.64 Y3.34 E50.3314
G1 X3.34 Y-5.64 E50.7687
G1 X2.97 Y-5.85 E50.7834
G1 X-5.85 Y2.96 E51.2127
G1 X-6.03 Y2.57 E51.2275
G1 X2.57 Y-6.03 E51.6464
G1 X2.15 Y-6.19 E51.6619
G1 X-6.19 Y2.15 E52.0681
G1 X-6.33 Y1.71 E52.0840
G1 X1.70 Y-6.32 E52.4751
G1 X1.24 Y-6.43 E52.4914
G1 X-6.44 Y1.24 E52.8652
G1 X-6.51 Y.74 E52.8826
G1 X.74 Y-6.51 E53.2358
G1 X.20 Y-6.55 E53.2544
G1 X-6.55 Y.20 E53.5832
G1 X-6.54 Y-.39 E53.6035
G1 X-.39 Y-6.54 E53.9030
G1 X-1.04 Y-6.47 E53.9256
G1 X-6.47 Y-1.04 E54.1900
G1 X-6.32 Y-1.74 E54.2147
G1 X-6.31 Y-1.78 E54.2161
G1 X-1.78 Y-6.31 E54.4368
G1 X-2.48 Y-6.07 E54.4622
G1 X-2.69 Y-5.98 E54.4701
G1 X-5.96 Y-2.70 E54.6296
G1 X-5.86 Y-2.94 E54.6386
G1 X-5.67 Y-3.30 E54.6526
G1 X-5.44 Y-3.66 E54.6673
G1 X-5.18 Y-4.02 E54.6826
G1 X-4.93 Y-4.31 E54.6958
G1 X-4.26 Y-4.98 E54.7284
;layer:0.19
G1 Z.660 F420
G1 X6.90 Y-.00 F4800
;structure:shell-inner
G1 X6.90 Y-.00
G1 X6.88 Y.50 E54.7457 F2880
G1 X6.83 Y.96 E54.7616
G1 X6.76 Y1.40 E54.7769
G1 X6.65 Y1.82 E54.7919
G1 X6.52 Y2.27 E54.8080
G1 X6.35 Y2.69 E54.8236
G1 X6.17 Y3.09 E54.8387
G1 X5.95 Y3.49 E54.8545
G1 X5.71 Y3.87 E54.8699
G1 X5.44 Y4.24 E54.8857
G1 X5.16 Y4.58 E54.9009
G1 X4.84 Y4.91 E54.9167
G1 X4.51 Y5.22 E54.9323
G1 X4.16 Y5.50 E54.9477
G1 X3.79 Y5.77 E54.9635
G1 X3.42 Y5.99 E54.9783
G1 X3.00 Y6.21 E54.9947 F3024
G1 X2.60 Y6.39 E55.0098
G1 X2.16 Y6.55 E55.0259
G1 X1.74 Y6.67 E55.0409
G1 X1.31 Y6.77 E55.0561
G1 X.84 Y6.85 E55.0726
G1 X.41 Y6.88 E55.0874
G1 X-.06 Y6.90 E55.1036
G1 X-.49 Y6.88 E55.1184
G1 X-.96 Y6.83 E55.1347
G1 X-1.40 Y6.75 E55.1501
G1 X-1.82 Y6.65 E55.1650
G1 X-2.27 Y6.52 E55.1811
G1 X-2.69 Y6.35 E55.1967
G1 X-3.09 Y6.17 E55.2118
G1 X-3.49 Y5.95 E55.2276
G1 X-3.87 Y5.71 E55.2430 F3168
G1 X-4.24 Y5.44 E55.2588
G1 X-4.59 Y5.15 E55.2745
G1 X-4.91 Y4.84 E55.2898
G1 X-5.22 Y4.51 E55.3054
